icons/dna.svg

<svg width="48" height="48" viewBox="0 0 48 48" fill="none" xmlns="http://www.w3.org/2000/svg">
<path fill-rule="evenodd" clip-rule="evenodd" d="M35 9.22967V6H33V9H15V6H13V9.22967C13 14.6524 15.5895 19.6466 19.8037 22.7875C20.4275 22.3933 21.0782 22.0334 21.7536 21.7107C19.8831 20.4891 18.329 18.8727 17.1851 17H30.8149C29.2395 19.5789 26.8863 21.6719 24 22.9172C23.9947 22.9194 23.9894 22.9217 23.9841 22.924C23.8665 22.9746 23.748 23.0238 23.6286 23.0715C22.9531 23.3417 22.302 23.6524 21.6777 24C16.8813 26.6708 13.6672 31.5245 13.0925 37H13V38.7703V39V42H15V39H33V42H35V39V38.7703V37H34.9075C34.4113 32.2723 31.9474 28.0082 28.1963 25.2125C27.5725 25.6067 26.9218 25.9666 26.2464 26.2893C28.1169 27.5109 29.671 29.1273 30.8149 31H17.1851C18.7605 28.4211 21.1137 26.3281 24 25.0828C24.0053 25.0806 24.0106 25.0783 24.0159 25.076C24.1335 25.0254 24.252 24.9762 24.3714 24.9285C25.0469 24.6583 25.698 24.3476 26.3223 24C31.63 21.0445 35 15.4159 35 9.22967ZM31.8385 33H16.1615C15.6308 34.2636 15.2711 35.608 15.1051 37H32.8949C32.7289 35.608 32.3692 34.2636 31.8385 33ZM16.1615 15H31.8385C32.3692 13.7364 32.7289 12.392 32.8949 11H15.1051C15.2711 12.392 15.6308 13.7364 16.1615 15Z" fill="black"/>
</svg>

<svg
  xmlns="http://www.w3.org/2000/svg"
  width="24"
  height="24"
  viewBox="0 0 24 24"
  fill="none"
  stroke="currentColor"
  stroke-width="2"
  stroke-linecap="round"
  stroke-linejoin="round"
>
  <path
    fill-rule="evenodd"
    d="M35 9.23V6h-2v3H15V6h-2v3.23a16.91 16.91 0 0 0 6.804 13.558 19 19 0 0 1 1.95-1.077A14.9 14.9 0 0 1 17.185 17h13.63A14.9 14.9 0 0 1 24 22.917l-.016.007q-.177.075-.355.148-1.014.406-1.951.928a16.91 16.91 0 0 0-8.586 13H13v5h2v-3h18v3h2v-5h-.093a16.92 16.92 0 0 0-6.71-11.788 19 19 0 0 1-1.95 1.077A14.9 14.9 0 0 1 30.814 31h-13.63A14.9 14.9 0 0 1 24 25.083l.016-.007q.177-.075.355-.148A16.91 16.91 0 0 0 35 9.23M31.839 33H16.162a14.9 14.9 0 0 0-1.057 4h17.79a14.9 14.9 0 0 0-1.057-4M16.162 15h15.677c.53-1.264.89-2.608 1.056-4h-17.79a14.9 14.9 0 0 0 1.056 4"
    clip-rule="evenodd"
  />
</svg>
